!!!!SEGMENT: pl-wtm--r-1227--003_lodwigowski-edward-stefan--krakowiak.krn
!!!cenid: 18xx:1943
!!!COM: Łodwigowski, Edward Stefan
!!!COM-rismID: pe30111147
!!!CDT: 1815/08/14-1895/11/12
!!!CNT: Polish
!!!OTL: Krakowiak
!!!PDT:
!!!AGN:
!!!SMS-siglum: PL-Wtm
!!!SMS-shelfmark: R 1227
!!!SMS-shelfwork: 003 W
!!!SMS-variant:
!!!SMS-altvar:
!!!NIFC-rismSourceID: 1001084029
!!!NIFC-rismChildID: 1001084029
!!!NIFC-islandoraID:
!!!URL-pdf-islandora:
!!!URL-scan:
!!!IIIF:
!!!ONB-nifc: UWAGA: No. 75
!!!OMD: No 75. Andantino
!!!AIN: 2 forte
!!!key:
**kern	**fing	**kern	**fing	**dynam
*part2	*	*part1	*	*part1
*staff2	*	*staff1	*	*
*Iforte	*	*Iforte	*	*
*I"Fortepian	*	*I"Fortepian	*	*
*clefF4	*	*clefG2	*	*
*k[b-]	*	*k[b-]	*	*
*d:	*	*d:	*	*
*M2/4	*	*M2/4	*	*
*>[A,A]	*>[A,A]	*>[A,A]	*>[A,A]	*>[A,A]
=1	=1	=1	=1	=1
*all\right	*	*all\right	*	*
*>A	*>A	*>A	*>A	*>A
*	*^	*	*	*
!	!	!	!LO:TX:a:t=Krakowiak	!	!
8FL 8D\	3	5	(8.dd\L	2	p
!LO:TX:a:t=dolente	!	!	!	!	!
8A\	.	.	.	.	.
.	.	.	16ee\Jk	.	.
8F 8D\	.	.	8ff\L)	.	.
8A\J	.	.	8ff'\J	3	.
=2	=2	=2	=2	=2	=2
8GL 8C#X\	2	5	8ff|\	2	.
8A\	.	.	(4ee^\	1	.
8G 8E\	.	4	.	.	.
8A\J	.	.	8cc#X\)	2	.
*	*v	*v	*	*	*
=3	=3	=3	=3	=3
8FL 8D\	.	(16dd\LL	.	.
.	.	16cc#X\	.	.
8A\	.	16dd\	.	.
.	.	16ee\JJ	.	.
8F 8D\	.	8ff'\L)	.	.
8A\J	.	8ff'\J	4	.
=4	=4	=4	=4	=4
8GL 8C#X\	.	8ff|\	3	.
8A\	.	4ee^\	2	.
8G 8C#\	.	.	.	.
8A\J	.	8r	.	.
=5	=5	=5	=5	=5
8FL 8D\	.	8ff\L	3	.
.	.	(8qgg/	.	.
8A\	.	(16ff\L)	.	.
.	.	16ee\JJ	.	.
8F 8D\	.	4dd\)	.	.
8A\J	.	.	.	.
!!LO:PB:g=original
=6	=6	=6	=6	=6
8GL 8E\	.	8cc#X|\	2	.
8A\	.	(4ee^\	4	.
8G 8E\	.	.	.	.
8A\J	.	8cc#\)	.	.
=7	=7	=7	=7	=7
8GL 8C#X\	.	8a'\L	1	.
8A\	.	8a'\J	.	.
8G 8E\	.	(8a\L	1	.
8A\J	.	16bn\L	.	.
.	.	16cc#X\JJ)	.	.
=8	=8	=8	=8	=8
8FL 8D\	.	4dd\	.	.
8A\	.	.	.	.
.	.	(8qa/	.	.
8F 8D\	.	((8.aa\L)	.	.
8A\J	.	.	.	.
.	.	16gg\Jk)	.	.
=9	=9	=9	=9	=9
8FL 8D\	.	8ff'\L)	.	.
.	.	(8qgg/	4	.
8A\	.	(16ff\L)	.	.
.	.	16ee\JJ	.	.
8F 8D\	.	4dd\)	.	.
8A\J	.	.	.	.
=10	=10	=10	=10	=10
8GL 8E\	.	8cc#X'|\	.	.
8A\	.	(4ee^\	.	.
8G 8E\	.	.	.	.
8A\J	.	8cc#\)	.	.
=11	=11	=11	=11	=11
8GL 8C#X\	.	8a'\L	.	.
8A\	.	8a'\J	.	.
8G 8E\	.	(8a\L	.	.
8A\J	.	16bn\L	.	.
.	.	16cc#X\JJ)	.	.
=12	=12	=12	=12	=12
8FL 8D\	.	(4dd\	.	.
8A\	.	.	.	.
8FJ 8D\	.	8dd\)	.	.
8r	.	8r	.	.
=:|!	=:|!	=:|!	=:|!	=:|!
*-	*-	*-	*-	*-
!!!system-decoration: {s1,s2}
!!!RDF**kern: | = vertical stroke
!!!ENC: Marta Lawrence
!!!END: 2021-05-02
!!!ENC: Andrzej Gręziak
!!!END: 2021-04-17
!!!YEC: Copyright 2022 Narodowy Instytut Fryderyka Chopina (https://polishscores.org)
!!!YEM: License CC-BY-4.0 (https://creativecommons.org/licenses/by/4.0)
